X: 2
T:Coleraine
M:6/8
L:1/8
R:Jig
K:A
|:E |"Am"A2 A (ABc)|"Em"(Be)e (e2d) |{d}"Am"(cBA) (ABc) | "Em"(BE)E E2 E
|!
"Am"A2 A (ABc) |"Em"(B2e) e2 d |"Am"(cBA) "E7"(BA^G)|"Am"A2 A A2:|]!
|:B|"C"[E2c2] [Ec] (cdc)|"G"(Bdg) [Bg] ^g |"Am"(aed) (cBA) |"E7"(^GAB) (
EFG)|!
"Am"(A^GA) "E7"(BAB)|"Am"(cde) "Dm"([Af]ed)|"Am"(cBA) "E7"(BA^G)|"Am"A2 
A A2 :|]
